lib/build/svg/brand/microsoft-dynamics-365.svg

<svg width="24" height="24" viewBox="0 0 24 24" fill="none" xmlns="http://www.w3.org/2000/svg">
<mask id="mask0" style="mask-type:alpha" maskUnits="userSpaceOnUse" x="4" y="2" width="15" height="20">
<path d="M18.5834 8.328C18.5834 7.44756 18.0299 6.66216 17.2007 6.36604L5.1136 2.04925C4.57092 1.85543 4 2.25776 4 2.83404V9.3976C4 9.74977 4.2214 10.0639 4.55306 10.1824L9.96973 12.1169C10.5124 12.3107 11.0833 11.9084 11.0833 11.3321V7.56337C11.0833 7.27225 11.3743 7.07085 11.6468 7.17339L13.0671 7.70793C13.8791 8.0135 14.4167 8.79023 14.4167 9.65777V11.299L8.29733 13.5349C7.96865 13.655 7.75 13.9676 7.75 14.3176V20.8765C7.75 21.4553 8.32565 21.8579 8.86933 21.6592L17.215 18.6098C18.0367 18.3095 18.5833 17.5279 18.5833 16.653L18.5834 8.328Z" fill="white"/>
</mask>
<g mask="url(#mask0)">
<path d="M4 1.65155L18.5834 6.85984V14.0108C18.5834 14.5871 18.0125 14.9894 17.4698 14.7957L14.4167 13.7056V9.65657C14.4167 8.78863 13.8786 8.01161 13.0661 7.70634L11.6465 7.17299C11.3741 7.07063 11.0833 7.27201 11.0833 7.56303V12.5146L4 9.98488V1.65155Z" fill="url(#paint0_linear)"/>
<g filter="url(#filter0_f)">
<path d="M18.5833 8.40149C18.5833 9.27636 18.0367 10.0596 17.215 10.3598L7.75 13.8182V22.1515L18.5833 18.1932V8.40149Z" fill="black" fill-opacity="0.24"/>
</g>
<g filter="url(#filter1_f)">
<path d="M18.5833 8.73486C18.5833 9.60974 18.0367 10.3929 17.215 10.6932L7.75 14.1516V22.4849L18.5833 18.5265V8.73486Z" fill="black" fill-opacity="0.32"/>
</g>
<path d="M18.5833 8.31818C18.5833 9.19305 18.0367 9.97624 17.215 10.2765L7.75 13.7349V22.0682L18.5833 18.1098V8.31818Z" fill="url(#paint1_linear)"/>
<path opacity="0.5" d="M18.5833 8.31818C18.5833 9.19305 18.0367 9.97624 17.215 10.2765L7.75 13.7349V22.0682L18.5833 18.1098V8.31818Z" fill="url(#paint2_linear)"/>
<path opacity="0.5" d="M14.4169 11.3016L11.0817 12.5217L11.0817 17.4088C11.0817 17.6999 11.3727 17.9013 11.6452 17.7987L13.0675 17.2634C13.8794 16.9578 14.4169 16.1811 14.4169 15.3136V11.3016Z" fill="#B0ADFF"/>
</g>
<defs>
<filter id="filter0_f" x="6.95" y="7.60149" width="12.4333" height="15.35" filterUnits="userSpaceOnUse" color-interpolation-filters="sRGB">
<feFlood flood-opacity="0" result="BackgroundImageFix"/>
<feBlend mode="normal" in="SourceGraphic" in2="BackgroundImageFix" result="shape"/>
<feGaussianBlur stdDeviation="0.4" result="effect1_foregroundBlur"/>
</filter>
<filter id="filter1_f" x="-0.25" y="0.734863" width="26.8333" height="29.75" filterUnits="userSpaceOnUse" color-interpolation-filters="sRGB">
<feFlood flood-opacity="0" result="BackgroundImageFix"/>
<feBlend mode="normal" in="SourceGraphic" in2="BackgroundImageFix" result="shape"/>
<feGaussianBlur stdDeviation="4" result="effect1_foregroundBlur"/>
</filter>
<linearGradient id="paint0_linear" x1="9.42606" y1="1.65155" x2="13.3039" y2="11.8022" gradientUnits="userSpaceOnUse">
<stop stop-color="#0B53CE"/>
<stop offset="1" stop-color="#7252AA"/>
</linearGradient>
<linearGradient id="paint1_linear" x1="14.862" y1="21.3374" x2="14.862" y2="9.23803" gradientUnits="userSpaceOnUse">
<stop stop-color="#2266E3"/>
<stop offset="1" stop-color="#AE7FE2"/>
</linearGradient>
<linearGradient id="paint2_linear" x1="18.5833" y1="13.6903" x2="14.4326" y2="13.6903" gradientUnits="userSpaceOnUse">
<stop stop-color="#94B9FF"/>
<stop offset="0.287843" stop-color="#94B9FF" stop-opacity="0.523646"/>
<stop offset="1" stop-color="#538FFF" stop-opacity="0"/>
</linearGradient>
</defs>
</svg>

<svg width="24" height="24" viewBox="0 0 24 24" fill="none" xmlns="http://www.w3.org/2000/svg">
  <mask id="a" style="mask-type:alpha" maskUnits="userSpaceOnUse" x="4" y="2" width="15" height="20">
    <path d="M18.583 8.328c0-.88-.553-1.666-1.382-1.962L5.114 2.049A.833.833 0 004 2.834v6.564c0 .352.221.666.553.784l5.417 1.935a.833.833 0 001.113-.785V7.563c0-.29.291-.492.564-.39l1.42.535a2.083 2.083 0 011.35 1.95v1.641l-6.12 2.236a.833.833 0 00-.547.783v6.559c0 .578.576.98 1.12.782l8.345-3.05a2.083 2.083 0 001.368-1.956V8.328z" fill="#fff"/>
  </mask>
  <g mask="url(#a)">
    <path d="M4 1.652L18.583 6.86v7.15c0 .577-.57.98-1.113.786l-3.053-1.09v-4.05c0-.867-.538-1.644-1.35-1.95l-1.42-.533a.417.417 0 00-.564.39v4.952L4 9.985V1.652z" fill="url(#microsoft-dynamics-365__paint0_linear)"/>
    <g filter="url(#microsoft-dynamics-365__filter0_f)">
      <path d="M18.583 8.401c0 .875-.546 1.659-1.368 1.959L7.75 13.818v8.333l10.833-3.958V8.401z" fill="#000" fill-opacity=".24"/>
    </g>
    <g filter="url(#microsoft-dynamics-365__filter1_f)">
      <path d="M18.583 8.735c0 .875-.546 1.658-1.368 1.958L7.75 14.152v8.333l10.833-3.959V8.735z" fill="#000" fill-opacity=".32"/>
    </g>
    <path d="M18.583 8.318c0 .875-.546 1.658-1.368 1.959L7.75 13.735v8.333l10.833-3.958V8.318z" fill="url(#microsoft-dynamics-365__paint1_linear)"/>
    <path opacity=".5" d="M18.583 8.318c0 .875-.546 1.658-1.368 1.959L7.75 13.735v8.333l10.833-3.958V8.318z" fill="url(#microsoft-dynamics-365__paint2_linear)"/>
    <path opacity=".5" d="M14.417 11.302l-3.335 1.22v4.887c0 .29.29.492.563.39l1.423-.536a2.083 2.083 0 001.349-1.95v-4.011z" fill="#B0ADFF"/>
  </g>
  <defs>
    <linearGradient id="microsoft-dynamics-365__paint0_linear" x1="9.426" y1="1.652" x2="13.304" y2="11.802" gradientUnits="userSpaceOnUse">
      <stop stop-color="#0B53CE"/>
      <stop offset="1" stop-color="#7252AA"/>
    </linearGradient>
    <linearGradient id="microsoft-dynamics-365__paint1_linear" x1="14.862" y1="21.337" x2="14.862" y2="9.238" gradientUnits="userSpaceOnUse">
      <stop stop-color="#2266E3"/>
      <stop offset="1" stop-color="#AE7FE2"/>
    </linearGradient>
    <linearGradient id="microsoft-dynamics-365__paint2_linear" x1="18.583" y1="13.69" x2="14.433" y2="13.69" gradientUnits="userSpaceOnUse">
      <stop stop-color="#94B9FF"/>
      <stop offset=".288" stop-color="#94B9FF" stop-opacity=".524"/>
      <stop offset="1" stop-color="#538FFF" stop-opacity="0"/>
    </linearGradient>
    <filter id="microsoft-dynamics-365__filter0_f" x="6.95" y="7.601" width="12.433" height="15.35" filterUnits="userSpaceOnUse" color-interpolation-filters="sRGB">
      <feFlood flood-opacity="0" result="BackgroundImageFix"/>
      <feBlend in="SourceGraphic" in2="BackgroundImageFix" result="shape"/>
      <feGaussianBlur stdDeviation=".4" result="effect1_foregroundBlur"/>
    </filter>
    <filter id="microsoft-dynamics-365__filter1_f" x="-.25" y=".735" width="26.833" height="29.75" filterUnits="userSpaceOnUse" color-interpolation-filters="sRGB">
      <feFlood flood-opacity="0" result="BackgroundImageFix"/>
      <feBlend in="SourceGraphic" in2="BackgroundImageFix" result="shape"/>
      <feGaussianBlur stdDeviation="4" result="effect1_foregroundBlur"/>
    </filter>
  </defs>
</svg>
